X: 1
T: The Arran Boat
R: jig
M: 6/8
L: 1/8
K: Edor
|:E3 FE2|B3 cd2|A3 FD2|A2 AF D2|
|E3 FE2|B3 cd2|AF3 D2|1 E6:|2 E4 B2||
|:e3 fe2|g3 fe2|d2 dB G2|A2 AF D2|
|1 e3 fe2|g3 fe2|dB3 d2|e6:|
|2 E3 FE2|d3 BG2|AF3 D2|E6||


Tune 986	Setting 14186

